dist/assets/img/questions/8/backdrop.svg

<svg width="705" height="441" viewBox="0 0 705 441" fill="none" xmlns="http://www.w3.org/2000/svg"><g filter="url(#filter0_di_1495_83234)"><path fill-rule="evenodd" clip-rule="evenodd" d="M270.189 364.039c-94.939-14.963-201.14-31.7-224.784-111.733C12.273 140.152 137.553 63.62 254.79 42.396c101.038-18.29 272.88-33.69 329.599 50.212 21.997 32.539 36.222 72.838 39.999 112.895.194 2.061.585 4.113 1.421 6.007 7.195 16.306 23.812 25.012 38.137 32.516a.166.166 0 01-.058.313c-9.455 1.116-18.558-.128-26.755-2.528-5.896-1.727-12.35 2.164-13.05 8.267-4.918 42.886-23.867 81.797-60.476 105.885-65.274 42.949-147.623 36.935-224.39 20.229-21.228-4.62-44.76-8.329-69.027-12.153z" fill="#fff"/></g><defs><filter id="filter0_di_1495_83234" x="0" y="0" width="704.035" height="440.773" filterUnits="userSpaceOnUse" color-interpolation-filters="sRGB"><feFlood flood-opacity="0" result="BackgroundImageFix"/><feColorMatrix in="SourceAlpha" values="0 0 0 0 0 0 0 0 0 0 0 0 0 0 0 0 0 0 127 0" result="hardAlpha"/><feOffset dy="12"/><feGaussianBlur stdDeviation="20"/><feComposite in2="hardAlpha" operator="out"/><feColorMatrix values="0 0 0 0 0.909804 0 0 0 0 0.313726 0 0 0 0 0.470588 0 0 0 1 0"/><feBlend in2="BackgroundImageFix" result="effect1_dropShadow_1495_83234"/><feBlend in="SourceGraphic" in2="effect1_dropShadow_1495_83234" result="shape"/><feColorMatrix in="SourceAlpha" values="0 0 0 0 0 0 0 0 0 0 0 0 0 0 0 0 0 0 127 0" result="hardAlpha"/><feOffset dy="-4"/><feGaussianBlur stdDeviation="4"/><feComposite in2="hardAlpha" operator="arithmetic" k2="-1" k3="1"/><feColorMatrix values="0 0 0 0 0.909804 0 0 0 0 0.313726 0 0 0 0 0.470588 0 0 0 0.48 0"/><feBlend in2="shape" result="effect2_innerShadow_1495_83234"/></filter></defs></svg>

<svg width="705" height="441" viewBox="0 0 705 441" fill="none" xmlns="http://www.w3.org/2000/svg">
<g filter="url(#filter0_di_1495_83234)">
<path fill-rule="evenodd" clip-rule="evenodd" d="M270.189 364.039C175.25 349.076 69.0484 332.339 45.4053 252.306C12.2731 140.152 137.553 63.6196 254.789 42.3964C355.827 24.1056 527.669 8.70603 584.388 92.6078C606.385 125.147 620.61 165.446 624.387 205.503C624.581 207.564 624.972 209.616 625.808 211.51C633.003 227.816 649.62 236.522 663.945 244.026C664.091 244.103 664.05 244.32 663.887 244.339C654.432 245.455 645.329 244.211 637.132 241.811C631.236 240.084 624.782 243.975 624.082 250.078C619.164 292.964 600.215 331.875 563.606 355.963C498.332 398.912 415.983 392.898 339.216 376.192C317.988 371.572 294.456 367.863 270.189 364.039Z" fill="white"/>
</g>
<defs>
<filter id="filter0_di_1495_83234" x="0" y="0" width="704.035" height="440.773" filterUnits="userSpaceOnUse" color-interpolation-filters="sRGB">
<feFlood flood-opacity="0" result="BackgroundImageFix"/>
<feColorMatrix in="SourceAlpha" type="matrix" values="0 0 0 0 0 0 0 0 0 0 0 0 0 0 0 0 0 0 127 0" result="hardAlpha"/>
<feOffset dy="12"/>
<feGaussianBlur stdDeviation="20"/>
<feComposite in2="hardAlpha" operator="out"/>
<feColorMatrix type="matrix" values="0 0 0 0 0.909804 0 0 0 0 0.313726 0 0 0 0 0.470588 0 0 0 1 0"/>
<feBlend mode="normal" in2="BackgroundImageFix" result="effect1_dropShadow_1495_83234"/>
<feBlend mode="normal" in="SourceGraphic" in2="effect1_dropShadow_1495_83234" result="shape"/>
<feColorMatrix in="SourceAlpha" type="matrix" values="0 0 0 0 0 0 0 0 0 0 0 0 0 0 0 0 0 0 127 0" result="hardAlpha"/>
<feOffset dy="-4"/>
<feGaussianBlur stdDeviation="4"/>
<feComposite in2="hardAlpha" operator="arithmetic" k2="-1" k3="1"/>
<feColorMatrix type="matrix" values="0 0 0 0 0.909804 0 0 0 0 0.313726 0 0 0 0 0.470588 0 0 0 0.48 0"/>
<feBlend mode="normal" in2="shape" result="effect2_innerShadow_1495_83234"/>
</filter>
</defs>
</svg>
